resources/svg/whatsapp-o.svg

<svg xmlns="http://www.w3.org/2000/svg" viewBox="0 0 15 15" fill="none"><path d="M1.8998 11.7004L2.34701 11.924L2.48533 11.6474L2.29956 11.4001L1.8998 11.7004ZM3.29959 13.1002L3.59991 12.7004L3.35262 12.5147L3.07598 12.653L3.29959 13.1002ZM0.5 14.5L0.0527864 14.2764C-0.0434608 14.4689 -0.00573355 14.7014 0.146447 14.8536C0.298627 15.0057 0.531113 15.0435 0.723607 14.9472L0.5 14.5ZM4.5 4.5L4.22265 4.08397C4.08355 4.17671 4 4.33282 4 4.5H4.5ZM10.5 10.5V11C10.6672 11 10.8233 10.9164 10.916 10.7774L10.5 10.5ZM6.25426 5.02554L6.74745 4.94334L6.25426 5.02554ZM6.3937 5.86221L5.90051 5.94441L6.3937 5.86221ZM5.96201 6.85866L6.23936 7.27469H6.23936L5.96201 6.85866ZM10.6421 10.2868L11.0581 10.5642L10.6421 10.2868ZM9.97446 8.74574L10.0567 8.25255L9.97446 8.74574ZM9.13779 8.6063L9.05559 9.09949V9.0995L9.13779 8.6063ZM8.14134 9.03799L7.72531 8.76064L8.14134 9.03799ZM0 7.5C0 9.18803 0.558266 10.7471 1.50003 12.0007L2.29956 11.4001C1.48342 10.3137 1 8.96403 1 7.5H0ZM7.5 0C3.35786 0 0 3.35786 0 7.5H1C1 3.91015 3.91015 1 7.5 1V0ZM15 7.5C15 3.35786 11.6421 0 7.5 0V1C11.0899 1 14 3.91015 14 7.5H15ZM7.5 15C11.6421 15 15 11.6421 15 7.5H14C14 11.0899 11.0899 14 7.5 14V15ZM2.99927 13.5C4.25289 14.4417 5.81197 15 7.5 15V14C6.03597 14 4.68629 13.5166 3.59991 12.7004L2.99927 13.5ZM0.723607 14.9472L3.5232 13.5474L3.07598 12.653L0.276393 14.0528L0.723607 14.9472ZM1.45258 11.4768L0.0527864 14.2764L0.947214 14.7236L2.34701 11.924L1.45258 11.4768ZM4 4.5V5.5H5V4.5H4ZM9.5 11H10.5V10H9.5V11ZM4 5.5C4 8.53757 6.46243 11 9.5 11V10C7.01472 10 5 7.98528 5 5.5H4ZM4.77735 4.91603L4.99051 4.77392L4.43581 3.94187L4.22265 4.08397L4.77735 4.91603ZM5.76106 5.10774L5.90051 5.94441L6.8869 5.78001L6.74745 4.94334L5.76106 5.10774ZM5.68466 6.44264L4.72265 7.08397L5.27735 7.91603L6.23936 7.27469L5.68466 6.44264ZM5.90051 5.94441C5.93285 6.13849 5.84837 6.3335 5.68466 6.44264L6.23936 7.27469C6.73049 6.94727 6.98394 6.36225 6.8869 5.78001L5.90051 5.94441ZM4.99051 4.77392C5.29241 4.57266 5.70141 4.74985 5.76106 5.10774L6.74745 4.94334C6.56851 3.86967 5.34149 3.33808 4.43581 3.94187L4.99051 4.77392ZM10.916 10.7774L11.0581 10.5642L10.2261 10.0095L10.084 10.2226L10.916 10.7774ZM10.0567 8.25255L9.21999 8.1131L9.05559 9.0995L9.89226 9.23894L10.0567 8.25255ZM7.72531 8.76064L7.08397 9.72265L7.91603 10.2774L8.55736 9.31534L7.72531 8.76064ZM9.21999 8.1131C8.63775 8.01606 8.05273 8.26951 7.72531 8.76064L8.55736 9.31534C8.6665 9.15163 8.86151 9.06715 9.05559 9.09949L9.21999 8.1131ZM11.0581 10.5642C11.6619 9.65851 11.1303 8.43149 10.0567 8.25255L9.89226 9.23894C10.2502 9.29859 10.4273 9.70759 10.2261 10.0095L11.0581 10.5642Z" fill="black"/></svg>

<svg xmlns="http://www.w3.org/2000/svg" viewBox="0 0 15 15" fill="none"><path d="M1.9 11.7l.447.224.138-.277L2.3 11.4l-.4.3zm1.4 1.4l.3-.4-.247-.185-.277.138.224.447zM.5 14.5l-.447-.224a.5.5 0 00.67.671L.5 14.5zm4-10l-.277-.416A.5.5 0 004 4.5h.5zm6 6v.5a.5.5 0 00.416-.223L10.5 10.5zM6.254 5.026l.493-.083-.493.083zm.14.836l-.493.082.493-.082zm-.432.997l.277.416-.277-.416zm4.68 3.428l.416.277-.416-.277zm-.668-1.541l.083-.493-.083.493zm-.836-.14l-.082.493.082-.493zm-.997.432l-.416-.277.416.277zM0 7.5c0 1.688.558 3.247 1.5 4.5l.8-.6A6.47 6.47 0 011 7.5H0zM7.5 0A7.5 7.5 0 000 7.5h1A6.5 6.5 0 017.5 1V0zM15 7.5A7.5 7.5 0 007.5 0v1A6.5 6.5 0 0114 7.5h1zM7.5 15A7.5 7.5 0 0015 7.5h-1A6.5 6.5 0 017.5 14v1zM3 13.5A7.47 7.47 0 007.5 15v-1a6.469 6.469 0 01-3.9-1.3l-.6.8zM.723 14.947l2.8-1.4-.448-.894-2.8 1.4.448.894zm.729-3.47l-1.4 2.8.894.447 1.4-2.8-.894-.447zM4 4.5v1h1v-1H4zM9.5 11h1v-1h-1v1zM4 5.5A5.5 5.5 0 009.5 11v-1A4.5 4.5 0 015 5.5H4zm.777-.584l.214-.142-.555-.832-.213.142.554.832zm.984.192l.14.836.986-.164-.14-.837-.986.165zm-.076 1.335l-.962.641.554.832.962-.641-.554-.832zm.216-.499a.5.5 0 01-.216.499l.554.832a1.5 1.5 0 00.648-1.495l-.986.164zm-.91-1.17a.5.5 0 01.77.334l.986-.165a1.5 1.5 0 00-2.311-1.001l.555.832zm5.925 6.003l.142-.213-.832-.555-.142.214.832.554zm-.86-2.524l-.836-.14-.164.987.836.139.165-.986zm-2.33.508l-.642.962.832.554.641-.962-.832-.554zm1.494-.648a1.5 1.5 0 00-1.495.648l.832.554a.5.5 0 01.499-.216l.164-.986zm1.838 2.451a1.5 1.5 0 00-1.001-2.311l-.165.986a.5.5 0 01.334.77l.832.555z" fill="currentColor"/></svg>
